X: 31007
T: Pachelbel's Frolics
R: reel
M: 4/4
K: Amajor
|:"A"a2ag abc'd'|"E"e'2e'f' e'c'ba|"F#m"fefg agaf|"C#m"efed cABc|
"D"dcde fefg|"A"agab c'2bc'|"D"d'c'ba gabc'|1 "E7"d'bgb "A"a2ag:|2 "E7"d'bgb "A"a2ab||
|:"A"c'ae'a c'ae'a|"E"bge'g bge'g|"F#m"afc'f afc'f|"C#m"efed cABc|
"D"dcde fefg|"A"agab c'2bc'|"D"d'c'ba gabc'|1 "E7"d'bgb "A"a2ab:|2 "E7"d'bgb "A"a4||

